src/images/GeneFit/Process1.svg

<svg fill="none" height="215" viewBox="0 0 215 215" width="215" xmlns="http://www.w3.org/2000/svg"><rect fill="#ec8539" height="215" rx="20" width="215"/><g fill="#fbfbfb"><path d="m164.25 44.5h-112.4996c-6.875 0-12.5 5.625-12.5 12.5v75c0 6.875 5.625 12.5 12.5 12.5h43.75l-12.5 18.75v6.25h49.9996v-6.25l-12.5-18.75h43.75c6.875 0 12.5-5.625 12.5-12.5v-75c0-6.875-5.625-12.5-12.5-12.5zm0 75h-112.4996v-62.5h112.4996z"/><path d="m66.625 79.4167h27.9583v5.0833h-27.9583zm0-5.0834h27.9583v-5.0833h-27.9583zm0 20.3334h17.7917v-5.0834h-17.7917zm38.15-7.9555 1.805-1.8045c.235-.2357.514-.4226.822-.5501.307-.1276.637-.1932.97-.1932s.662.0656.97.1932c.307.1275.587.3144.822.5501l1.804 1.8045c.992.9913.992 2.5925 0 3.5838l-1.804 1.8046zm-1.804 1.8046-13.471 13.4712v5.388h5.3883l13.4707-13.4708z"/><rect height="5.28667" rx="2.64333" width="30.0933" x="65.5067" y="69.0467"/><rect height="5.28666" rx="2.64333" width="30.0933" x="65.5067" y="79.2133"/><rect height="5.28667" rx="2.64334" width="19.9267" x="65.5067" y="89.38"/></g></svg>

<svg width="215" height="215" viewBox="0 0 215 215" fill="none" xmlns="http://www.w3.org/2000/svg">
<rect width="215" height="215" rx="20" fill="#EC8539"/>
<path d="M164.25 44.5H51.7504C44.8754 44.5 39.2504 50.125 39.2504 57V132C39.2504 138.875 44.8754 144.5 51.7504 144.5H95.5004L83.0004 163.25V169.5H133V163.25L120.5 144.5H164.25C171.125 144.5 176.75 138.875 176.75 132V57C176.75 50.125 171.125 44.5 164.25 44.5ZM164.25 119.5H51.7504V57H164.25V119.5Z" fill="#FBFBFB"/>
<path d="M66.625 79.4167H94.5833V84.5H66.625V79.4167ZM66.625 74.3333H94.5833V69.25H66.625V74.3333ZM66.625 94.6667H84.4167V89.5833H66.625V94.6667ZM104.775 86.7112L106.58 84.9067C106.815 84.671 107.094 84.4841 107.402 84.3566C107.709 84.229 108.039 84.1634 108.372 84.1634C108.705 84.1634 109.034 84.229 109.342 84.3566C109.649 84.4841 109.929 84.671 110.164 84.9067L111.968 86.7112C112.96 87.7025 112.96 89.3037 111.968 90.295L110.164 92.0996L104.775 86.7112ZM102.971 88.5158L89.5 101.987V107.375H94.8883L108.359 93.9042L102.971 88.5158Z" fill="#FBFBFB"/>
<rect x="65.5067" y="69.0467" width="30.0933" height="5.28667" rx="2.64333" fill="#FBFBFB"/>
<rect x="65.5067" y="79.2133" width="30.0933" height="5.28666" rx="2.64333" fill="#FBFBFB"/>
<rect x="65.5067" y="89.38" width="19.9267" height="5.28667" rx="2.64334" fill="#FBFBFB"/>
</svg>
